X: 3261
T: Captain Ross.   a Reel.
B: Niel Gow & Sons "Complete Repository" v.3 p.26 #1
Z: 2021 John Chambers <jc:trillian.mit.edu>
M: C|
L: 1/8
K: A
% - - - - - - - - - -
V: 1 staves=2
c |\
E2(.E>.c) TBAFB | A/A/A cA eAcA | E2(.E.c) TBA Ff | ecdB A/A/A A :| f | (ef/g/) ac TB>A Ff | (ef/g/) ae Tfeae |
(f/g/a) ec TB>A Ff | e>fac A/A/A Af || (ef/g/) ac TB>A Ff | (ef/g/) ae Tfeae | (f/g/a) ec TB>A Ff | ecdB A/A/A A |]
% - - - - - - - - - -
V: 2 clef=bass middle=d
z | A2A2 B2B2 | A2A2 A2A2 | A2A2 B2B2 | e2E2 A2A :| z | a2a2 b2b2 | a2a2 a2c'2 |
d'2c'2 b2b2 | a2e2 A2Az || a2a2 b2b2 | a2a2 a2c'2 | d'2c'2 b2b2 | e2e2 A2A |]


